social/bluesky_follow.svg

<svg width="141" height="21" viewBox="0 0 141 21" fill="none" xmlns="http://www.w3.org/2000/svg">
<g clip-path="url(#clip0_2026_2)">
<rect width="141" height="21" rx="5" fill="black"/>
<g filter="url(#filter0_d_2026_2)">
<g clip-path="url(#clip1_2026_2)">
<path d="M8.46825 4.86784C10.3025 6.12839 12.2757 8.68391 13 10.0553V13.6775C13 13.6004 12.9675 13.6875 12.8975 13.8752C12.5195 14.8915 11.043 18.8579 7.66675 15.687C5.889 14.0176 6.712 12.3481 9.948 11.8441C8.09675 12.1323 6.0155 11.6559 5.4445 9.788C5.28 9.25067 5 5.94091 5 5.4939C5 3.2547 7.14475 3.95853 8.46825 4.86784ZM17.5317 4.86784C15.6975 6.12839 13.7242 8.68391 13 10.0553V13.6775C13 13.6004 13.0325 13.6875 13.1025 13.8752C13.4805 14.8915 14.957 18.8579 18.3332 15.687C20.111 14.0176 19.288 12.3481 16.052 11.8441C17.9032 12.1323 19.9845 11.6559 20.5555 9.788C20.72 9.25067 21 5.94091 21 5.4939C21 3.2547 18.8555 3.95853 17.5317 4.86784Z" fill="white"/>
</g>
</g>
<g filter="url(#filter1_d_2026_2)">
<path d="M24.0387 15.5V6.04546H29.9016V7.27344H25.4652V10.1541H29.4815V11.3775H25.4652V15.5H24.0387ZM34.0114 15.6431C33.3467 15.6431 32.7665 15.4908 32.271 15.1861C31.7755 14.8814 31.3908 14.4551 31.1169 13.9073C30.843 13.3595 30.7061 12.7193 30.7061 11.9869C30.7061 11.2513 30.843 10.6081 31.1169 10.0572C31.3908 9.50627 31.7755 9.07848 32.271 8.77379C32.7665 8.46911 33.3467 8.31676 34.0114 8.31676C34.6762 8.31676 35.2564 8.46911 35.7519 8.77379C36.2474 9.07848 36.6321 9.50627 36.906 10.0572C37.1799 10.6081 37.3168 11.2513 37.3168 11.9869C37.3168 12.7193 37.1799 13.3595 36.906 13.9073C36.6321 14.4551 36.2474 14.8814 35.7519 15.1861C35.2564 15.4908 34.6762 15.6431 34.0114 15.6431ZM34.0161 14.4844C34.4469 14.4844 34.8039 14.3705 35.0871 14.1428C35.3702 13.915 35.5795 13.6119 35.7149 13.2333C35.8534 12.8548 35.9227 12.4377 35.9227 11.9822C35.9227 11.5298 35.8534 11.1143 35.7149 10.7358C35.5795 10.3542 35.3702 10.0479 35.0871 9.81712C34.8039 9.58629 34.4469 9.47088 34.0161 9.47088C33.5821 9.47088 33.222 9.58629 32.9358 9.81712C32.6527 10.0479 32.4418 10.3542 32.3034 10.7358C32.1679 11.1143 32.1002 11.5298 32.1002 11.9822C32.1002 12.4377 32.1679 12.8548 32.3034 13.2333C32.4418 13.6119 32.6527 13.915 32.9358 14.1428C33.222 14.3705 33.5821 14.4844 34.0161 14.4844ZM40.2379 6.04546V15.5H38.8576V6.04546H40.2379ZM43.4752 6.04546V15.5H42.0949V6.04546H43.4752ZM48.3191 15.6431C47.6543 15.6431 47.0742 15.4908 46.5787 15.1861C46.0831 14.8814 45.6984 14.4551 45.4245 13.9073C45.1506 13.3595 45.0137 12.7193 45.0137 11.9869C45.0137 11.2513 45.1506 10.6081 45.4245 10.0572C45.6984 9.50627 46.0831 9.07848 46.5787 8.77379C47.0742 8.46911 47.6543 8.31676 48.3191 8.31676C48.9838 8.31676 49.564 8.46911 50.0595 8.77379C50.555 9.07848 50.9397 9.50627 51.2136 10.0572C51.4875 10.6081 51.6245 11.2513 51.6245 11.9869C51.6245 12.7193 51.4875 13.3595 51.2136 13.9073C50.9397 14.4551 50.555 14.8814 50.0595 15.1861C49.564 15.4908 48.9838 15.6431 48.3191 15.6431ZM48.3237 14.4844C48.7545 14.4844 49.1116 14.3705 49.3947 14.1428C49.6778 13.915 49.8871 13.6119 50.0225 13.2333C50.161 12.8548 50.2303 12.4377 50.2303 11.9822C50.2303 11.5298 50.161 11.1143 50.0225 10.7358C49.8871 10.3542 49.6778 10.0479 49.3947 9.81712C49.1116 9.58629 48.7545 9.47088 48.3237 9.47088C47.8897 9.47088 47.5296 9.58629 47.2434 9.81712C46.9603 10.0479 46.7495 10.3542 46.611 10.7358C46.4755 11.1143 46.4078 11.5298 46.4078 11.9822C46.4078 12.4377 46.4755 12.8548 46.611 13.2333C46.7495 13.6119 46.9603 13.915 47.2434 14.1428C47.5296 14.3705 47.8897 14.4844 48.3237 14.4844ZM54.4867 15.5L52.4 8.40909H53.8265L55.2161 13.6165H55.2853L56.6795 8.40909H58.106L59.4909 13.5934H59.5602L60.9405 8.40909H62.367L60.285 15.5H58.8769L57.4366 10.3803H57.3304L55.8901 15.5H54.4867ZM70.1042 15.6431C69.4394 15.6431 68.8593 15.4908 68.3638 15.1861C67.8683 14.8814 67.4836 14.4551 67.2097 13.9073C66.9358 13.3595 66.7988 12.7193 66.7988 11.9869C66.7988 11.2513 66.9358 10.6081 67.2097 10.0572C67.4836 9.50627 67.8683 9.07848 68.3638 8.77379C68.8593 8.46911 69.4394 8.31676 70.1042 8.31676C70.769 8.31676 71.3491 8.46911 71.8446 8.77379C72.3401 9.07848 72.7248 9.50627 72.9987 10.0572C73.2727 10.6081 73.4096 11.2513 73.4096 11.9869C73.4096 12.7193 73.2727 13.3595 72.9987 13.9073C72.7248 14.4551 72.3401 14.8814 71.8446 15.1861C71.3491 15.4908 70.769 15.6431 70.1042 15.6431ZM70.1088 14.4844C70.5397 14.4844 70.8967 14.3705 71.1799 14.1428C71.463 13.915 71.6723 13.6119 71.8077 13.2333C71.9462 12.8548 72.0154 12.4377 72.0154 11.9822C72.0154 11.5298 71.9462 11.1143 71.8077 10.7358C71.6723 10.3542 71.463 10.0479 71.1799 9.81712C70.8967 9.58629 70.5397 9.47088 70.1088 9.47088C69.6749 9.47088 69.3148 9.58629 69.0286 9.81712C68.7454 10.0479 68.5346 10.3542 68.3961 10.7358C68.2607 11.1143 68.193 11.5298 68.193 11.9822C68.193 12.4377 68.2607 12.8548 68.3961 13.2333C68.5346 13.6119 68.7454 13.915 69.0286 14.1428C69.3148 14.3705 69.6749 14.4844 70.1088 14.4844ZM76.3307 11.2898V15.5H74.9504V8.40909H76.2753V9.56321H76.363C76.5261 9.18774 76.7816 8.88613 77.1293 8.65838C77.4802 8.43063 77.9218 8.31676 78.4543 8.31676C78.9375 8.31676 79.3606 8.41832 79.7238 8.62145C80.087 8.8215 80.3686 9.12003 80.5686 9.51705C80.7687 9.91406 80.8687 10.4049 80.8687 10.9897V15.5H79.4884V11.1559C79.4884 10.6419 79.3545 10.2403 79.0867 9.95099C78.819 9.65862 78.4512 9.51243 77.9834 9.51243C77.6633 9.51243 77.3786 9.58168 77.1293 9.72017C76.8831 9.85866 76.6877 10.0618 76.543 10.3295C76.4015 10.5942 76.3307 10.9143 76.3307 11.2898Z" fill="#E8E8E8"/>
<path d="M84.7156 15.5V6.04546H88.658C89.3659 6.04546 89.9583 6.14548 90.4354 6.34553C90.9155 6.54557 91.2756 6.82564 91.5156 7.18572C91.7588 7.54581 91.8803 7.96283 91.8803 8.43679C91.8803 8.79688 91.8049 9.11849 91.6541 9.40163C91.5033 9.6817 91.2956 9.91406 91.0309 10.0987C90.7662 10.2834 90.46 10.4126 90.1122 10.4865V10.5788C90.4938 10.5973 90.8462 10.7004 91.1694 10.8881C91.4956 11.0759 91.7572 11.3375 91.9542 11.6729C92.1512 12.0053 92.2496 12.3993 92.2496 12.8548C92.2496 13.3626 92.1204 13.8165 91.8619 14.2166C91.6033 14.6136 91.2294 14.9276 90.7401 15.1584C90.2507 15.3861 89.6567 15.5 88.9581 15.5H84.7156ZM87.0007 13.658H88.4134C88.9089 13.658 89.2736 13.5642 89.5075 13.3764C89.7444 13.1887 89.8629 12.9271 89.8629 12.5916C89.8629 12.3485 89.806 12.1392 89.6921 11.9638C89.5782 11.7853 89.4167 11.6483 89.2074 11.5529C88.9981 11.4544 88.7473 11.4052 88.4549 11.4052H87.0007V13.658ZM87.0007 9.93253H88.2656C88.5149 9.93253 88.7365 9.89098 88.9304 9.80788C89.1243 9.72479 89.2751 9.60476 89.3828 9.4478C89.4936 9.29084 89.549 9.10156 89.549 8.87997C89.549 8.56297 89.4367 8.31368 89.212 8.1321C88.9873 7.95052 88.6842 7.85973 88.3026 7.85973H87.0007V9.93253ZM95.6058 6.04546V15.5H93.3484V6.04546H95.6058ZM101.618 12.4393V8.40909H103.87V15.5H101.719V14.1797H101.645C101.488 14.6136 101.221 14.9583 100.842 15.2138C100.467 15.4661 100.013 15.5923 99.4802 15.5923C98.997 15.5923 98.5723 15.4815 98.2061 15.2599C97.8398 15.0384 97.5551 14.729 97.352 14.332C97.1489 13.9319 97.0458 13.4641 97.0427 12.9286V8.40909H99.3002V12.4854C99.3032 12.8701 99.4048 13.1733 99.6048 13.3949C99.8049 13.6165 100.077 13.7273 100.422 13.7273C100.647 13.7273 100.848 13.678 101.027 13.5795C101.208 13.478 101.351 13.3318 101.456 13.141C101.564 12.9471 101.618 12.7132 101.618 12.4393ZM108.622 15.6339C107.88 15.6339 107.24 15.4877 106.702 15.1953C106.166 14.8999 105.754 14.4798 105.464 13.935C105.178 13.3872 105.035 12.7363 105.035 11.9822C105.035 11.2498 105.18 10.6096 105.469 10.0618C105.758 9.51089 106.166 9.0831 106.692 8.77841C107.219 8.47064 107.839 8.31676 108.553 8.31676C109.057 8.31676 109.519 8.39524 109.938 8.5522C110.356 8.70916 110.718 8.94152 111.023 9.24929C111.327 9.55705 111.564 9.93714 111.733 10.3896C111.903 10.8389 111.987 11.3544 111.987 11.9361V12.4993H105.824V11.1882H109.887C109.884 10.9482 109.827 10.7343 109.716 10.5465C109.605 10.3588 109.453 10.2126 109.259 10.108C109.068 10.0002 108.848 9.94638 108.599 9.94638C108.347 9.94638 108.12 10.0033 107.92 10.1172C107.72 10.228 107.562 10.3803 107.445 10.5742C107.328 10.765 107.266 10.982 107.26 11.2251V12.5593C107.26 12.8486 107.317 13.1025 107.431 13.321C107.545 13.5365 107.706 13.7042 107.916 13.8242C108.125 13.9442 108.374 14.0043 108.664 14.0043C108.864 14.0043 109.045 13.9766 109.208 13.9212C109.371 13.8658 109.511 13.7842 109.628 13.6765C109.745 13.5688 109.833 13.4364 109.892 13.2795L111.964 13.3395C111.878 13.8042 111.689 14.2089 111.396 14.5536C111.107 14.8952 110.727 15.1615 110.256 15.3523C109.785 15.54 109.241 15.6339 108.622 15.6339ZM119.331 10.5742L117.258 10.6296C117.237 10.4819 117.178 10.3511 117.083 10.2372C116.987 10.1203 116.863 10.0295 116.709 9.96484C116.558 9.89714 116.383 9.86328 116.183 9.86328C115.921 9.86328 115.698 9.9156 115.513 10.0202C115.332 10.1249 115.242 10.2665 115.245 10.445C115.242 10.5835 115.298 10.7035 115.412 10.805C115.529 10.9066 115.736 10.9882 116.035 11.0497L117.401 11.3082C118.109 11.4437 118.635 11.6683 118.98 11.9822C119.328 12.2962 119.503 12.7116 119.506 13.2287C119.503 13.715 119.359 14.1381 119.073 14.4982C118.789 14.8583 118.402 15.1384 117.909 15.3384C117.417 15.5354 116.854 15.6339 116.22 15.6339C115.207 15.6339 114.408 15.4261 113.824 15.0107C113.242 14.5921 112.91 14.032 112.826 13.3303L115.056 13.2749C115.105 13.5334 115.233 13.7303 115.439 13.8658C115.646 14.0012 115.909 14.0689 116.229 14.0689C116.518 14.0689 116.754 14.015 116.935 13.9073C117.117 13.7996 117.209 13.6565 117.212 13.478C117.209 13.3179 117.138 13.1902 117 13.0948C116.861 12.9963 116.644 12.9194 116.349 12.864L115.112 12.6286C114.401 12.4993 113.871 12.2608 113.524 11.913C113.176 11.5621 113.003 11.1159 113.006 10.5742C113.003 10.1003 113.13 9.69555 113.385 9.36009C113.64 9.02154 114.004 8.76302 114.475 8.58452C114.945 8.40601 115.501 8.31676 116.141 8.31676C117.101 8.31676 117.858 8.51835 118.412 8.92152C118.966 9.32161 119.273 9.87251 119.331 10.5742ZM122.654 13.6396L122.663 10.9482H122.977L124.971 8.40909H127.529L124.565 12.0469H123.969L122.654 13.6396ZM120.618 15.5V6.04546H122.875V15.5H120.618ZM125.022 15.5L123.166 12.5547L124.653 10.9528L127.63 15.5H125.022ZM129.869 18.1591C129.598 18.1591 129.343 18.1375 129.103 18.0945C128.863 18.0544 128.657 18.0006 128.484 17.9329L128.983 16.294C129.205 16.3679 129.405 16.411 129.583 16.4233C129.765 16.4356 129.92 16.4064 130.049 16.3356C130.182 16.2679 130.283 16.1463 130.354 15.9709L130.442 15.7585L127.921 8.40909H130.285L131.591 13.4687H131.665L132.99 8.40909H135.368L132.695 16.1786C132.565 16.5664 132.382 16.908 132.145 17.2035C131.911 17.502 131.608 17.7359 131.236 17.9052C130.866 18.0745 130.411 18.1591 129.869 18.1591Z" fill="white"/>
</g>
</g>
<rect x="0.6" y="0.6" width="139.8" height="19.8" rx="4.4" stroke="url(#paint0_linear_2026_2)" stroke-opacity="0.75" stroke-width="1.2"/>
<defs>
<filter id="filter0_d_2026_2" x="-0.60028" y="-3.10028" width="27.2006" height="27.2006" filterUnits="userSpaceOnUse" color-interpolation-filters="sRGB">
<feFlood flood-opacity="0" result="BackgroundImageFix"/>
<feColorMatrix in="SourceAlpha" type="matrix" values="0 0 0 0 0 0 0 0 0 0 0 0 0 0 0 0 0 0 127 0" result="hardAlpha"/>
<feOffset/>
<feGaussianBlur stdDeviation="2.80014"/>
<feComposite in2="hardAlpha" operator="out"/>
<feColorMatrix type="matrix" values="0 0 0 0 0 0 0 0 0 0 0 0 0 0 0 0 0 0 0.25 0"/>
<feBlend mode="normal" in2="BackgroundImageFix" result="effect1_dropShadow_2026_2"/>
<feBlend mode="normal" in="SourceGraphic" in2="effect1_dropShadow_2026_2" result="shape"/>
</filter>
<filter id="filter1_d_2026_2" x="17.2857" y="-3.21428" width="124.429" height="27.4286" filterUnits="userSpaceOnUse" color-interpolation-filters="sRGB">
<feFlood flood-opacity="0" result="BackgroundImageFix"/>
<feColorMatrix in="SourceAlpha" type="matrix" values="0 0 0 0 0 0 0 0 0 0 0 0 0 0 0 0 0 0 127 0" result="hardAlpha"/>
<feOffset/>
<feGaussianBlur stdDeviation="2.85714"/>
<feComposite in2="hardAlpha" operator="out"/>
<feColorMatrix type="matrix" values="0 0 0 0 0 0 0 0 0 0 0 0 0 0 0 0 0 0 0.25 0"/>
<feBlend mode="normal" in2="BackgroundImageFix" result="effect1_dropShadow_2026_2"/>
<feBlend mode="normal" in="SourceGraphic" in2="effect1_dropShadow_2026_2" result="shape"/>
</filter>
<linearGradient id="paint0_linear_2026_2" x1="0" y1="10.5" x2="141" y2="10.5" gradientUnits="userSpaceOnUse">
<stop stop-color="#0B7AFF"/>
<stop offset="1" stop-color="#58B9FE"/>
</linearGradient>
<clipPath id="clip0_2026_2">
<rect width="141" height="21" rx="5" fill="white"/>
</clipPath>
<clipPath id="clip1_2026_2">
<rect width="16" height="13" fill="white" transform="translate(5 4)"/>
</clipPath>
</defs>
</svg>

<svg xmlns="http://www.w3.org/2000/svg" width="141" height="21" fill="none"><g clip-path="url(#a)"><rect width="141" height="21" fill="#000" rx="5"/><g filter="url(#b)"><g clip-path="url(#c)"><path fill="#fff" d="M8.47 4.87A17.49 17.49 0 0 1 13 10.06v3.62c0-.08-.03 0-.1.2-.38 1.01-1.86 4.98-5.23 1.8-1.78-1.66-.96-3.33 2.28-3.84-1.85.3-3.93-.18-4.5-2.05C5.27 9.25 5 5.94 5 5.49c0-2.24 2.14-1.53 3.47-.62Zm9.06 0A17.49 17.49 0 0 0 13 10.06v3.62c0-.08.03 0 .1.2.38 1.01 1.86 4.98 5.23 1.8 1.78-1.66.96-3.33-2.28-3.84 1.85.3 3.93-.18 4.5-2.05.17-.54.45-3.85.45-4.3 0-2.24-2.14-1.53-3.47-.62Z"/></g></g><g filter="url(#d)"><path fill="#E8E8E8" d="M24.04 15.5V6.05h5.86v1.22h-4.43v2.88h4.01v1.23h-4.01v4.12h-1.43Zm9.97.14c-.66 0-1.24-.15-1.74-.45-.5-.3-.88-.73-1.15-1.28a4.24 4.24 0 0 1-.41-1.92c0-.74.13-1.38.4-1.93a3.08 3.08 0 0 1 2.9-1.74c.67 0 1.25.15 1.74.45.5.3.88.74 1.16 1.29.27.55.4 1.2.4 1.93s-.13 1.37-.4 1.92a3.08 3.08 0 0 1-2.9 1.73Zm0-1.16c.44 0 .8-.11 1.08-.34a2 2 0 0 0 .62-.9 3.75 3.75 0 0 0 .01-2.5 2.03 2.03 0 0 0-.63-.92 1.64 1.64 0 0 0-1.07-.35c-.44 0-.8.12-1.08.35-.29.23-.5.53-.64.92a3.81 3.81 0 0 0 0 2.49c.14.38.35.68.64.91.28.23.64.34 1.08.34Zm6.23-8.43v9.45h-1.38V6.05h1.38Zm3.24 0v9.45h-1.39V6.05h1.39Zm4.84 9.6a3.08 3.08 0 0 1-2.9-1.74 4.24 4.24 0 0 1-.4-1.92c0-.74.13-1.38.4-1.93a3.08 3.08 0 0 1 2.9-1.74 3 3 0 0 1 2.89 1.74c.28.55.41 1.2.41 1.93s-.13 1.37-.4 1.92a3.08 3.08 0 0 1-2.9 1.73Zm0-1.17c.43 0 .8-.11 1.07-.34a2 2 0 0 0 .63-.9 3.75 3.75 0 0 0 .01-2.5 2.03 2.03 0 0 0-.64-.92 1.64 1.64 0 0 0-1.07-.35c-.43 0-.79.12-1.08.35-.28.23-.5.53-.63.92a3.81 3.81 0 0 0 0 2.49c.14.38.35.68.63.91.29.23.65.34 1.08.34Zm6.17 1.02L52.4 8.4h1.43l1.39 5.22h.07l1.39-5.21h1.43l1.38 5.18h.07l1.38-5.18h1.43l-2.09 7.09h-1.4l-1.44-5.12h-.11l-1.44 5.12h-1.4Zm15.61.14c-.66 0-1.24-.15-1.74-.45-.5-.3-.88-.73-1.15-1.28a4.24 4.24 0 0 1-.41-1.92c0-.74.14-1.38.41-1.93a3.08 3.08 0 0 1 2.9-1.74c.66 0 1.24.15 1.73.45.5.3.88.74 1.16 1.29.27.55.41 1.2.41 1.93s-.14 1.37-.41 1.92a3.08 3.08 0 0 1-2.9 1.73Zm0-1.16c.44 0 .8-.11 1.08-.34a2 2 0 0 0 .63-.9c.14-.39.2-.8.2-1.26 0-.45-.06-.87-.2-1.24a2.03 2.03 0 0 0-.63-.92 1.64 1.64 0 0 0-1.07-.35c-.44 0-.8.12-1.08.35-.28.23-.5.53-.63.92-.14.37-.2.79-.2 1.24 0 .46.06.87.2 1.25a2 2 0 0 0 .63.91c.28.23.64.34 1.08.34Zm6.23-3.19v4.21h-1.38V8.4h1.33v1.16h.08a2.1 2.1 0 0 1 2.09-1.24c.49 0 .91.1 1.27.3.37.2.65.5.85.9.2.4.3.88.3 1.47v4.51h-1.38v-4.34c0-.52-.14-.92-.4-1.2-.27-.3-.64-.45-1.1-.45-.33 0-.61.07-.86.21a1.5 1.5 0 0 0-.59.6c-.14.27-.2.6-.2.97Z"/><path fill="#fff" d="M84.72 15.5V6.05h3.94c.7 0 1.3.1 1.78.3.48.2.84.48 1.08.84.24.36.36.77.36 1.25a1.99 1.99 0 0 1-.85 1.66c-.26.18-.57.31-.92.39v.09c.38.02.74.12 1.06.3a2.28 2.28 0 0 1 1.08 1.97 2.45 2.45 0 0 1-1.51 2.3 4.2 4.2 0 0 1-1.78.35h-4.24ZM87 13.66h1.41c.5 0 .86-.1 1.1-.28a.94.94 0 0 0 .35-.79c0-.24-.05-.45-.17-.63a1.1 1.1 0 0 0-.48-.4c-.21-.1-.46-.15-.76-.15H87v2.25Zm0-3.73h1.27c.24 0 .47-.04.66-.12a.96.96 0 0 0 .62-.93.9.9 0 0 0-.34-.75 1.4 1.4 0 0 0-.9-.27H87v2.07Zm8.6-3.88v9.45h-2.25V6.05h2.26Zm6.02 6.39V8.4h2.25v7.09h-2.15v-1.32h-.08a2 2 0 0 1-.8 1.03c-.37.26-.83.38-1.36.38a2.26 2.26 0 0 1-2.13-1.26c-.2-.4-.3-.87-.3-1.4V8.4h2.25v4.08c0 .38.1.68.3.9.2.23.48.34.82.34a1.16 1.16 0 0 0 1.04-.59c.1-.2.16-.43.16-.7Zm7 3.2a4 4 0 0 1-1.92-.44c-.53-.3-.95-.72-1.24-1.26a4.17 4.17 0 0 1-.42-1.96c0-.73.14-1.37.43-1.92.29-.55.7-.98 1.22-1.28a4.14 4.14 0 0 1 3.25-.23 2.98 2.98 0 0 1 1.8 1.84c.16.45.25.96.25 1.55v.56h-6.17v-1.31h4.07c0-.24-.06-.46-.17-.64a1.16 1.16 0 0 0-.46-.44c-.2-.11-.41-.16-.66-.16a1.35 1.35 0 0 0-1.16.62c-.11.2-.17.41-.18.66v1.33c0 .29.06.54.17.76.11.22.28.38.49.5.2.12.45.18.74.18.2 0 .39-.02.55-.08.16-.05.3-.14.42-.24a1 1 0 0 0 .26-.4l2.07.06a2.5 2.5 0 0 1-.56 1.21c-.3.35-.67.61-1.14.8a4.4 4.4 0 0 1-1.64.28Zm10.71-5.07-2.07.06a.77.77 0 0 0-.18-.4.95.95 0 0 0-.37-.27c-.15-.06-.33-.1-.53-.1-.26 0-.48.06-.67.16-.18.1-.27.25-.27.43 0 .13.06.25.17.36.12.1.33.18.63.24l1.36.26c.7.13 1.23.36 1.58.67.35.32.52.73.53 1.25a2 2 0 0 1-.44 1.27c-.28.36-.67.64-1.16.84-.5.2-1.06.3-1.69.3a4.07 4.07 0 0 1-2.4-.63 2.33 2.33 0 0 1-1-1.68l2.24-.06c.05.26.17.46.38.6.2.13.47.2.79.2.29 0 .52-.05.7-.16.19-.11.28-.25.28-.43a.46.46 0 0 0-.21-.39 1.7 1.7 0 0 0-.65-.23l-1.24-.23a2.93 2.93 0 0 1-1.59-.72 1.8 1.8 0 0 1-.51-1.34c0-.47.12-.87.38-1.21.25-.34.61-.6 1.08-.78a4.7 4.7 0 0 1 1.67-.26c.96 0 1.72.2 2.27.6.56.4.86.95.92 1.65Zm3.32 3.07.01-2.7h.32l2-2.53h2.55l-2.97 3.64h-.6l-1.3 1.59Zm-2.03 1.86V6.05h2.25v9.45h-2.25Zm4.4 0-1.85-2.95 1.48-1.6 2.98 4.55h-2.6Zm4.85 2.66a4.34 4.34 0 0 1-1.39-.23l.5-1.64c.23.08.43.12.6.13a.8.8 0 0 0 .47-.08.66.66 0 0 0 .3-.37l.1-.21-2.53-7.35h2.36l1.31 5.06h.07L133 8.4h2.38l-2.68 7.77a3.3 3.3 0 0 1-.54 1.02c-.24.3-.54.54-.91.7-.37.17-.83.26-1.37.26Z"/></g></g><rect width="139.8" height="19.8" x=".6" y=".6" stroke="url(#e)" stroke-opacity=".75" stroke-width="1.2" rx="4.4"/><defs><clipPath id="a"><rect width="141" height="21" fill="#fff" rx="5"/></clipPath><clipPath id="c"><path fill="#fff" d="M5 4h16v13H5z"/></clipPath><filter id="b" width="27.2" height="27.2" x="-.6" y="-3.1" color-interpolation-filters="sRGB" filterUnits="userSpaceOnUse"><feFlood flood-opacity="0" result="BackgroundImageFix"/><feColorMatrix in="SourceAlpha" result="hardAlpha" values="0 0 0 0 0 0 0 0 0 0 0 0 0 0 0 0 0 0 127 0"/><feOffset/><feGaussianBlur stdDeviation="2.8"/><feComposite in2="hardAlpha" operator="out"/><feColorMatrix values="0 0 0 0 0 0 0 0 0 0 0 0 0 0 0 0 0 0 0.25 0"/><feBlend in2="BackgroundImageFix" result="effect1_dropShadow_2026_2"/><feBlend in="SourceGraphic" in2="effect1_dropShadow_2026_2" result="shape"/></filter><filter id="d" width="124.43" height="27.43" x="17.29" y="-3.21" color-interpolation-filters="sRGB" filterUnits="userSpaceOnUse"><feFlood flood-opacity="0" result="BackgroundImageFix"/><feColorMatrix in="SourceAlpha" result="hardAlpha" values="0 0 0 0 0 0 0 0 0 0 0 0 0 0 0 0 0 0 127 0"/><feOffset/><feGaussianBlur stdDeviation="2.86"/><feComposite in2="hardAlpha" operator="out"/><feColorMatrix values="0 0 0 0 0 0 0 0 0 0 0 0 0 0 0 0 0 0 0.25 0"/><feBlend in2="BackgroundImageFix" result="effect1_dropShadow_2026_2"/><feBlend in="SourceGraphic" in2="effect1_dropShadow_2026_2" result="shape"/></filter><linearGradient id="e" x1="0" x2="141" y1="10.5" y2="10.5" gradientUnits="userSpaceOnUse"><stop stop-color="#0B7AFF"/><stop offset="1" stop-color="#58B9FE"/></linearGradient></defs></svg>
